X: 430
%
U:~=!turn!
T: Miss Stewart Robertson of Edradynate
C:
O:Scotland
B:Keith Norman MacDonald : "The Skye collection of the best reels & strathspeys extant" : 1887
Z:Ralph Palmer
R:Reel
M:C|
L:1/8
K:F
B | AFAc Tf2 (cf) | dfcA BGGB | [1 (AF)Ac Tf2 (cf) | dfcf AFF :|
[2 (AF)cA Bcde | fcdB AFF || f| afge Tf2 (cB) | AcfA BGGf | afge Tf2 (cB) |
Acfc AFFf | afge Tf2 (cB) | AcfA BGGB | (AF)cA Bcde | fcdB AFF |]


